src/app/personside/visittkort/body/epost/email.svg

<svg xmlns="http://www.w3.org/2000/svg" width="24" height="24" viewBox="0 0 24 24"><g stroke="#000" stroke-linecap="round" stroke-linejoin="round" stroke-miterlimit="10" fill="none"><path d="M23.5 18c0 .828-.672 1.5-1.5 1.5h-20c-.828 0-1.5-.672-1.5-1.5v-12c0-.828.672-1.5 1.5-1.5h20c.828 0 1.5.672 1.5 1.5v12zM20.5 8.5l-8.5 5.5-8.5-5.5M3.5 16l3.5-2M20.5 16l-3.5-2"/></g></svg>

<svg xmlns="http://www.w3.org/2000/svg" width="24" height="24">
    <path fill="none" stroke="rgba(0, 0, 0, 0.5)" stroke-linecap="round" stroke-linejoin="round" stroke-miterlimit="10" d="M23.5 18c0 .8-.7 1.5-1.5 1.5H2c-.8 0-1.5-.7-1.5-1.5V6c0-.8.7-1.5 1.5-1.5h20c.8 0 1.5.7 1.5 1.5v12zm-3-9.5L12 14 3.5 8.5m0 7.5L7 14m13.5 2L17 14"/>
</svg>
